vendor/shopware/storefront/Resources/app/storefront/dist/assets/icon/default/editor-subscript.svg

<svg xmlns="http://www.w3.org/2000/svg" width="12" height="12" viewBox="0 0 12 12">
  <path fill="#758CA3" fill-rule="evenodd" d="M2.83396075,6.00015113 L0.142658202,1.51464688 C-0.141489957,1.04106662 0.0120751067,0.426806362 0.485655373,0.142658202 C0.959235639,-0.141489957 1.57349589,0.0120751067 1.85764405,0.485655373 L4.00015113,4.0565005 L6.1426582,0.485655373 C6.42680636,0.0120751067 7.04106662,-0.141489957 7.51464688,0.142658202 C7.98822715,0.426806362 8.14179221,1.04106662 7.85764405,1.51464688 L5.16634151,6.00015113 L7.85764405,10.4856554 C8.14179221,10.9592356 7.98822715,11.5734959 7.51464688,11.8576441 C7.04106662,12.1417922 6.42680636,11.9882271 6.1426582,11.5146469 L4.00015113,7.94380176 L1.85764405,11.5146469 C1.57349589,11.9882271 0.959235639,12.1417922 0.485655373,11.8576441 C0.0120751067,11.5734959 -0.141489957,10.9592356 0.142658202,10.4856554 L2.83396075,6.00015113 Z M10.5001511,11.0001511 C9.671724,11.0001511 9.00015113,10.3285783 9.00015113,9.50015113 C9.00015113,8.671724 9.671724,8.00015113 10.5001511,8.00015113 C11.3285783,8.00015113 12.0001511,8.671724 12.0001511,9.50015113 C12.0001511,10.3285783 11.3285783,11.0001511 10.5001511,11.0001511 Z"/>
</svg>

<svg xmlns="http://www.w3.org/2000/svg" width="12" height="12" viewBox="0 0 12 12"><path fill="#758CA3" fill-rule="evenodd" d="M2.834 6.0002.1427 1.5146C-.1415 1.0411.012.4268.4857.1426c.4735-.284 1.0878-.1305 1.372.343l2.1425 3.5709L6.1427.4857c.2841-.4736.8984-.6272 1.372-.343.4735.2841.627.8984.343 1.372L5.1662 6.0001l2.6913 4.4855c.2842.4735.1306 1.0878-.343 1.372-.4735.284-1.0878.1305-1.372-.343L4.0003 7.9437l-2.1426 3.5708c-.2841.4736-.8984.6272-1.372.343-.4735-.2841-.627-.8984-.343-1.372L2.834 6.0003zm7.6662 5c-.8285 0-1.5-.6716-1.5-1.5 0-.8285.6715-1.5 1.5-1.5.8284 0 1.5.6715 1.5 1.5 0 .8284-.6716 1.5-1.5 1.5z"/></svg>
